X:27
T:God Save the King (with seconds). JBut.311
T:God Save the King_Secondo to No 311. JBut.H15
B:John Buttrey MS, poss. Lincolnshire, early 19thC
S:https://buttreymilitarysocialtunes1800.wordpress.com/
Z:vmp.Mike Hicken 2019 www.village-music-project.org.uk
M:3/4
L:1/4
Q:1/2=50
K:G
V:1
dde|Tcde|ffg|Tf>ed|edc|d2:|
|:aaa|a>gf|ggg|Tg>fe|
f g/f/e/d/|f>ga|(3b/a/g/ fe|d2:|
V:2
FFA|ABc|dde|dAF|FAA|F2:|
|:fff|fed|eee|edA|de/d/A/F/|def|(3g/f/e/ dA|F2:|

